!!!COM: Beethoven
!!!OTL: 13 Variationen uber "Es war einmal ein alter Mann" aus "Das rote Kappchen" von K. Ditters von Dittersdorf
!!!Variation: 12 f
**kern	**harm	**kern	**kern	**kern
*M4/4	*M4/4	*staff3	*staff2	*staff1
*	*	*clefF4	*clefF4	*clefG2
*	*	*k[f#c#g#]	*k[f#c#g#]	*k[f#c#g#]
*	*	*M2/4	*M2/4	*M2/4
*	*	*A:	*A:	*A:
1T	1I	8AL 8c#	1r	(4.a
.	.	8A 8c#	.	.
.	.	8A 8c#	.	.
.	.	8AJ 8c#	.	8b
.	.	8AL 8e	.	4.cc#
.	.	8A 8e	.	.
.	.	8A 8e	.	.
.	.	8AJ 8e	.	8dd
=	=	=470	=470	=470
2T	2V42/V	8AL 8B	1r	4dd#
.	.	8A 8B	.	.
.	.	8A 8B	.	[4ee
.	.	8AJ 8B	.	.
2T	2V6	8G#L 8e	.	8eeL])
.	.	8G# 8e	.	(8ee#
.	.	8G# 8e	.	8ff#
.	.	8G#J 8e	.	8ddJ)
=	=	=471	=471	=471
1T	1I	8AL 8e	1r	4cc#'
.	.	8A 8e	.	.
.	.	8A 8e	.	(16cc#LL
.	.	.	.	16b
.	.	8AJ 8e	.	16a
.	.	.	.	16g#JJ
.	.	8AL 8c#	.	4a')
.	.	8A 8c#	.	.
.	.	8A 8c#	.	(16aLL
.	.	.	.	16b
.	.	8AJ 8c#	.	16cc#
.	.	.	.	16ddJJ
=	=	=472	=472	=472
2T	2V42/V	8AL 8B	1r	4ee')
.	.	8A 8B	.	.
.	.	8A 8B	.	(16eeLL
.	.	.	.	16ff#
.	.	8AJ 8B	.	16ee
.	.	.	.	16dd#JJ
2T	2V6	8AL 8e	.	16eeLL
.	.	.	.	16ee#
.	.	8A 8e	.	16ff#
.	.	.	.	16eeJJ
.	.	8A 8e	.	16gg#LL
.	.	.	.	16ff#
.	.	8AJ 8e	.	16ee
.	.	.	.	16ddJJ)
=	=	=473	=473	=473
2T	2I	8AL 8e	1r	16cc#LL
.	.	.	.	16dd
.	.	8A	.	16cc#
.	.	.	.	16bJJ
.	.	8A	.	16cc#LL
.	.	.	.	16dd
.	.	8AJ	.	16ee
.	.	.	.	16cc#JJ
2D	2V7	8EL 8d	.	16bLL
.	.	.	.	16cc#
.	.	8E	.	16dd
.	.	.	.	16bJJ
.	.	8E	.	16g#LL
.	.	.	.	16a
.	.	8EJ	.	16b
.	.	.	.	16g#JJ
=	=	=474	=474	=474
4T	4I	16AALL	1r	4a
.	.	16A	.	.
.	.	16G#	.	.
.	.	16AJJ	.	.
4T	4V42	16DLL	.	16aaLL
.	.	16A	.	16ff#
.	.	16G#	.	16aa
.	.	16AJJ	.	16ff#JJ
4T	4I6	16C#LL	.	4ee'
.	.	16A	.	.
.	.	16G#	.	.
.	.	16AJJ	.	.
4T	4IV6	16F#LL	.	(16eeLL
.	.	16A	.	16dd
.	.	16G#	.	16ee
.	.	16AJJ	.	16ddJJ)
=	=	=475	=475	=475
2D	2I64	16ELL	1r	16cc#LL
.	.	16A	.	16dd
.	.	16c#	.	16cc#
.	.	16AJJ	.	16bJJ
.	.	16ELL	.	16cc#LL
.	.	16A	.	16dd
.	.	16c#	.	16ee
.	.	16AJJ	.	16cc#JJ
2D	2V	16ELL	.	16bLL
.	.	16G#	.	16cc#
.	.	16B	.	16b
.	.	16G#JJ	.	16aJJ
.	.	16ELL	.	16bLL
.	.	16G#	.	16cc#
.	.	16B	.	16dd
.	.	16G#JJ	.	16bJJ
=	=	=476	=476	=476
4T	4I	16AALL	1r	4a'
.	.	16A	.	.
.	.	16G#	.	.
.	.	16AJJ	.	.
4T	4V42	16DLL	.	(16aaLL
.	.	16A	.	16ff#
.	.	16G#	.	16aa
.	.	16AJJ	.	16ff#JJ)
4T	4I6	16C#LL	.	4ee'
.	.	16A	.	.
.	.	16G#	.	.
.	.	16AJJ	.	.
4T	4IV6	16F#LL	.	(16eeLL
.	.	16A	.	16dd
.	.	16G#	.	16ee
.	.	16AJJ	.	16ddJJ)
=	=	=477	=477	=477
2D	2I64	16ELL	1r	16cc#LL
.	.	16A	.	16dd
.	.	16c#	.	16cc#
.	.	16eJJ	.	16bJJ
.	.	16ELL	.	16cc#LL
.	.	16A	.	16dd
.	.	16c#	.	16ee
.	.	16eJJ	.	16cc#JJ
2D	2V7	16ELL	.	16bLL
.	.	16G#	.	16cc#
.	.	16B	.	16b
.	.	16dJJ	.	16aJJ
.	.	16ELL	.	16bLL
.	.	16G#	.	16cc#
.	.	16B	.	16dd
.	.	16dJJ	.	16bJJ
=	=	=478	=478	=478
1D	1r	1r;	1r;	1r;
=	=	=	=	=
*-	*-	*-	*-	*-
